X:1
T:Cool Blues
C:1949 - Charlie Parker
Z:Copyright © www.realbook.site
L:1/8
M:4/4
I:linebreak $
K:C
V:1 treble nm=" " snm=" "
V:1
"C69" GA/G/ EF GcBA |"F13" GFDA, E2 GD- |"C9#11" DC D6 | z8 |$"F9" GA/G/ _EF GcBA | %5
 GFDA,"F#dim" =E2 GD- |"C13" DC D4 z2 | z8 |$"G13" GA/G/ EF GcBA | GFDA,"G7#11" E2 GD- | %10
"C9" DC D6"C13" | z8 |] %12

